packages/icons/src/components/Icon/assets/small-solid/pin.svg

<svg width="16" height="16" viewBox="0 0 16 16" fill="none" xmlns="http://www.w3.org/2000/svg">
<path d="M8.76726 1.44911C9.36607 0.850296 10.3369 0.850296 10.9357 1.44911L14.5509 5.0643C15.1497 5.66311 15.1497 6.63398 14.5509 7.2328L11.2774 10.5063C11.0664 10.7174 10.9626 11.0102 10.964 11.3087C10.9687 12.3556 10.7211 13.4097 10.2227 14.3721C9.81545 15.1584 8.77171 15.1883 8.14563 14.5622L5.51468 11.9312L3.34486 14.1011C2.94558 14.5003 2.29823 14.5003 1.89895 14.1011C1.49967 13.7018 1.49967 13.0544 1.89895 12.6551L4.06878 10.4853L1.43781 7.85431C0.811725 7.22822 0.841635 6.18448 1.62785 5.77727C2.59035 5.27876 3.64453 5.03119 4.69144 5.03594C4.98998 5.03729 5.28282 4.93358 5.49392 4.72248L8.76726 1.44911Z" fill="black"/>
</svg>

<svg xmlns="http://www.w3.org/2000/svg" width="16" height="16" fill="none" viewBox="0 0 16 16">
    <path fill="#000" d="M8.767 1.45a1.533 1.533 0 0 1 2.169 0l3.615 3.614c.599.6.599 1.57 0 2.169l-3.274 3.273a1.12 1.12 0 0 0-.313.803 6.6 6.6 0 0 1-.741 3.063c-.408.786-1.451.816-2.077.19l-2.631-2.63-2.17 2.17a1.023 1.023 0 0 1-1.446-1.447l2.17-2.17-2.631-2.63c-.626-.627-.596-1.67.19-2.078a6.6 6.6 0 0 1 3.063-.741 1.12 1.12 0 0 0 .803-.314z"/>
</svg>
